src/helpers/heroicons/solid/chart-pie.svg

<svg width="24" height="24" viewBox="0 0 24 24" fill="none" xmlns="http://www.w3.org/2000/svg">
<path fill-rule="evenodd" clip-rule="evenodd" d="M2.25 13.5C2.25 8.94365 5.94365 5.25 10.5 5.25C10.9142 5.25 11.25 5.58579 11.25 6V12.75H18C18.4142 12.75 18.75 13.0858 18.75 13.5C18.75 18.0563 15.0563 21.75 10.5 21.75C5.94365 21.75 2.25 18.0563 2.25 13.5Z" />
<path fill-rule="evenodd" clip-rule="evenodd" d="M12.75 3C12.75 2.58579 13.0858 2.25 13.5 2.25C18.0563 2.25 21.75 5.94365 21.75 10.5C21.75 10.9142 21.4142 11.25 21 11.25H13.5C13.0858 11.25 12.75 10.9142 12.75 10.5V3Z" />
</svg>

<svg xmlns="http://www.w3.org/2000/svg" viewBox="0 0 24 24" fill="currentColor" aria-hidden="true" data-slot="icon">
  <path fill-rule="evenodd" d="M2.25 13.5a8.25 8.25 0 0 1 8.25-8.25.75.75 0 0 1 .75.75v6.75H18a.75.75 0 0 1 .75.75 8.25 8.25 0 0 1-16.5 0Z" clip-rule="evenodd"/>
  <path fill-rule="evenodd" d="M12.75 3a.75.75 0 0 1 .75-.75 8.25 8.25 0 0 1 8.25 8.25.75.75 0 0 1-.75.75h-7.5a.75.75 0 0 1-.75-.75V3Z" clip-rule="evenodd"/>
</svg>
